X:699
T:Spanish Waltz
L:1/8
M:3/4
%%MIDI beat 100 95 80
S:Colin Hume's website,  colinhume.com  - chords can also be printed below the stave.
H:Howe's Drawing Room Dances (1859) and other sources
Q:1/4=120
K:G
Bc | "G"d2dgfg | "G"Bdd2GB | "D7"Acc2FA | "G"GBB2Bc | "G"d2dgfg | "G"Bdd2GB | "D7"Acc2FA | "G"G4 ||
GB | "D7"Acc2FA | "G"GBB2GB | "D7"Acc2FA | "G"GBB2Bc | "G"d2dgfg | "G"Bdd2GB | "D7"Acc2FA | "G"G3 ||
DGA | "G"B3GBc | "G"d3eBe | "D7"dcAFAe | "G"dBGDGA | "G"B3GBc | "G"d3eBe | "D7"dcADFA | "G"G3 ||
dBd | "C"g3-gfe | "G"edd2e2 | "D7"dcc2d2 | "G"cBB2(3GBd | "C"g3-gfe | "G"edd2e2 | "D7"dcc DFA | "G"G3 |]

